src/lib/packages/icons/src/assets/filled/chat-check.svg

<svg width="24" height="24" viewBox="0 0 24 24" fill="none" xmlns="http://www.w3.org/2000/svg">
<path d="M13.514 18.63C13.472 19.283 13.544 19.908 13.71 20.494C13.759 20.667 13.658 20.848 13.481 20.878C13.002 20.957 12.506 20.996 12.003 20.996C10.663 20.996 9.38394 20.696 8.24394 20.166C7.80394 19.956 7.29399 19.956 6.82499 20.106L4.32499 20.946C3.53999 21.21 2.79097 20.462 3.05497 19.676L3.89506 17.177C4.04506 16.707 4.045 16.197 3.835 15.757C2.936 13.823 2.69911 11.486 3.46611 9.13701C4.5021 5.96501 7.32111 3.59401 10.6221 3.10301C16.2031 2.27301 21.001 6.57597 21.001 11.998C21.001 12.501 20.9611 12.997 20.8831 13.476C20.8541 13.654 20.6731 13.755 20.4991 13.705C19.9131 13.539 19.2881 13.467 18.6351 13.509C15.9341 13.685 13.689 15.93 13.514 18.63ZM21.5301 17.136C21.2371 16.843 20.762 16.843 20.469 17.136L17.6661 19.939L16.5291 18.803C16.2361 18.51 15.7611 18.51 15.4681 18.803C15.1751 19.096 15.1751 19.571 15.4681 19.864L17.1351 21.531C17.2811 21.677 17.4731 21.751 17.6651 21.751C17.8571 21.751 18.0491 21.678 18.1951 21.531L21.5281 18.198C21.8231 17.904 21.8231 17.429 21.5301 17.136Z" fill="currentColor"/>
</svg>

<svg xmlns="http://www.w3.org/2000/svg" width="24" height="24" fill="none"><path fill="currentColor" d="M13.514 18.63c-.042.653.03 1.278.196 1.864.049.173-.052.354-.229.384a9.1 9.1 0 0 1-1.478.118c-1.34 0-2.62-.3-3.76-.83-.44-.21-.949-.21-1.418-.06l-2.5.84a1.003 1.003 0 0 1-1.27-1.27l.84-2.499c.15-.47.15-.98-.06-1.42-.899-1.934-1.136-4.271-.369-6.62 1.036-3.172 3.855-5.543 7.156-6.034 5.581-.83 10.379 3.473 10.379 8.895 0 .503-.04.999-.118 1.478-.029.178-.21.279-.384.229a5.514 5.514 0 0 0-1.864-.196c-2.7.176-4.946 2.421-5.121 5.121Zm8.016-1.494a.75.75 0 0 0-1.061 0l-2.803 2.803-1.137-1.136a.75.75 0 1 0-1.06 1.061l1.666 1.667a.748.748 0 0 0 1.06 0l3.333-3.333a.75.75 0 0 0 .002-1.062Z"/></svg>
